X:1247
L:1/8
M:4/4
K:Emin
 BEEE AEAB | EABE BAGB | AFFF EFDF | ADFA BAFA | BEEE AEAB | EABE BAGB | cBBA AGAF |1 EFGA GFED :|2 
 EGGA (3Bcd ef ||

